!!!!SEGMENT: pl-wn--mus-iii-601--006-003_janiewicz-feliks--vie-trio-rondo-allegro.krn
!!!cenid: 17xx:2403
!!!COM: Janiewicz, Feliks
!!!COM-rismid: pe30011012
!!!CDT:
!!!CNT:
!!!OPR: VIe Trio
!!!OTL: Rondo/Allegro
!!!OMV: 003
!!!PDT:
!!!SMS-siglum: PL-Wn
!!!AGN:
!!!SMS-shelfmark: Mus.III.601
!!!SMS-shelfwork: 006-003 M
!!!SMS-variant:
!!!SMS-altvar: g
!!!NIFC-rismid: 990069598
!!!URL-scan: https://polona.pl/item/six-trios-pour-deux-violons-basse,MTAxMDA3MzY2/0/#item
!!!ONB-nifc: UWAGA: źródło zawiera 6 Trio na 2 skrzypiec i wiolonczelę. Violino Primo (od skanu 3), Violino Secondo (od skanu 37), Basso (od skanu 61). Basso to partia wiolonczeli. Części Ie Trio: 1. Allegro, 2. Andante, 3. Rondo/Allegro
**kern	**dynam	**kern	**dynam	**kern
*part3	*part3	*part2	*part2	*part1
*staff3	*	*staff2	*	*staff1
*I"Basso	*	*I"Violino Secundo	*	*I"Violino Primo
*I'Vc.	*	*I'Vn II	*	*I'Vn I
*Icello	*	*Ivioln	*	*Ivioln
*ICstr	*	*ICstr	*	*ICstr
*IG	*	*	*	*
*clefF4	*	*clefG2	*	*clefG2
*k[b-e-]	*	*k[b-e-]	*	*k[b-e-]
*B-:	*	*B-:	*	*B-:
*M2/4	*	*M2/4	*	*M2/4
=1	=1	=1	=1	=1
!LO:TX:a:B:t=Rondo Allegro	!	!LO:TX:a:B:t=Rondo Allegro	!	!LO:TX:a:B:t=Rondo Allegro
4BB-/	p	4f/ 4b-	.	16dd|\LL
.	.	.	.	16ee-|\
.	.	.	.	16dd|\
.	.	.	.	16cc|\JJ
8r	.	8r	.	16dd|\LL
.	.	.	.	16b-|\
8B-\	.	8f/ 8b-	.	16cc|\
.	.	.	.	16dd|\JJ
=2	=2	=2	=2	=2
4A\	.	4f/ 4cc	.	16ee-\LL
.	.	.	.	16ff\
.	.	.	.	16ee-\
.	.	.	.	16dd\JJ
8r	.	8r	.	16ee-\LL
.	.	.	.	16cc\
8A\	.	8f/ 8cc	.	16ff\
.	.	.	.	16ee-\JJ
=3	=3	=3	=3	=3
4B-\	.	4f/ 4b-	.	16dd\LL
.	.	.	.	16ee-\
.	.	.	.	16dd\
.	.	.	.	16cc\JJ
8r	.	8r	.	16dd\LL
.	.	.	.	16b-\
8B-\	.	8f/ 8b-	.	16ff\
.	.	.	.	16dd\JJ
=4	=4	=4	=4	=4
4F\	.	4f/ 4a	.	16cc/LL
.	.	.	.	16b-/
.	.	.	.	16a/
.	.	.	.	16g/JJ
4r	.	4r	.	16f/LL
.	.	.	.	16a/
.	.	.	.	16b-/
.	.	.	.	16cc/JJ
=5	=5	=5	=5	=5
4B-\	.	4f/ 4b-	.	16dd\LL
.	.	.	.	16ee-\
.	.	.	.	16dd\
.	.	.	.	16cc\JJ
8r	.	8r	.	16dd\LL
.	.	.	.	16b-\
8B-\	.	8f/ 8b-	.	16cc\
.	.	.	.	16dd\JJ
=6	=6	=6	=6	=6
4B-\	.	4f/ 4cc	.	16een\LL
.	.	.	.	16ff\
.	.	.	.	16ee\
.	.	.	.	16dd\JJ
8r	.	8r	.	16ee\LL
.	.	.	.	16cc\
8B-\	.	8f/ 8cc	.	16dd\
.	.	.	.	16ee\JJ
!	!	!	!	!LO:LB:g=original
=7	=7	=7	=7	=7
!LO:TX:t=P:problem:mixed beam	!	!	!	!
8A\L	.	8f/L 8cc	.	16ff\LL
.	.	.	.	16een\
8F\	.	8a/J	.	16ff\
.	.	.	.	16aa\JJ
8c\	.	8r	.	16gg\LL
.	.	.	.	16bb-\
8C/J	.	8b-\	.	16ee\
.	.	.	.	16gg\JJ
=8	=8	=8	=8	=8
4F\	.	4a/	.	(4ff\
4r	.	4r	.	8een\L)
.	.	.	.	8ee-X\J
=9	=9	=9	=9	=9
[2BB-/	pp	8B-/L	p	(16dd\LL
.	.	.	.	16ee-\)
.	.	8f/	.	16dd|\
.	.	.	.	16cc|\JJ
.	.	8b-/	.	(16dd\LL
.	.	.	.	16b-\)
.	.	8f/J	.	16cc|\
.	.	.	.	16dd|\JJ
=10	=10	=10	=10	=10
2BB-/_	.	8c/L	.	(16ee-\LL
.	.	.	.	16ff\)
.	.	8f/	.	16ee-|\
.	.	.	.	16dd|\JJ
.	.	8a/	.	16ee-\LL
.	.	.	.	16cc\
.	.	8f/J	.	16ff\
.	.	.	.	16ee-\JJ
=11	=11	=11	=11	=11
2BB-/]	.	8B-/L	.	16dd\LL
!LO:LB:g=original	!	!	!	!
.	.	.	.	16ee-\
.	.	8f/	.	16dd\
.	.	.	.	16cc\JJ
.	.	8b-/	.	16dd\LL
.	.	.	.	16b-\
.	.	8f/J	.	16ff\
!	!	!LO:LB:g=original	!	!
.	.	.	.	16dd\JJ
=12	=12	=12	=12	=12
4FF/	.	4a/	.	16cc/LL
.	.	.	.	16b-/
.	.	.	.	16a/
.	.	.	.	16g/JJ
4r	.	4r	.	16f/LL
.	.	.	.	16a/
.	.	.	.	16b-/
.	.	.	.	16cc/JJ
=13	=13	=13	=13	=13
(2BB-/	.	8B-/L	.	16dd\LL
.	.	.	.	16ee-\
.	.	8f/	.	16dd\
.	.	.	.	16cc\JJ
.	.	8b-/	.	16dd\LL
.	.	.	.	16b-\
.	.	8f/J	.	16cc\
.	.	.	.	16dd\JJ
!	!	!	!	!LO:LB:g=original
=14	=14	=14	=14	=14
4C/)	.	8c/L	.	16een\LL
.	.	.	.	16ff\
.	.	8g/	.	16ee\
.	.	.	.	16dd\JJ
4r	.	8b-/	.	16ee\LL
.	.	.	.	16cc\
.	.	8g/J	.	16dd\
.	.	.	.	16ee\JJ
=15	=15	=15	=15	=15
8F\L	.	4a/	.	16ff\LL
.	.	.	.	16een\
8C\	.	.	.	16ff\
.	.	.	.	16aa\JJ
8En\	.	8r	.	16gg\LL
.	.	.	.	16bb-\
8C\J	.	8b-\	.	16ee\
.	.	.	.	16gg\JJ
=16	=16	=16	=16	=16
!LO:TX:t=P:problem:mixed beam	!	!	!	!
8F\L	.	4a/	.	[4ff\
8FF/J	.	.	.	.
4r	.	4r	.	16ff\LL]
.	.	.	.	16gg\
.	.	.	.	16ff\
.	.	.	.	16een\JJ
=17	=17	=17	=17	=17
2r	.	2r	.	(16ff\LL
.	.	.	.	16gg\)
.	.	.	.	16aa|\
.	.	.	.	16bb-|\JJ
.	.	.	.	(16ccc\LL
.	.	.	.	16aa\)
.	.	.	.	16ccc|\
.	.	.	.	16aa|\JJ
=18	=18	=18	=18	=18
!LO:TX:t=P:problem:mixed beam	!	!	!	!
!LO:TX:a:B:t=1	!	!LO:TX:a:B:t=1	!	!
8F\L	.	8c/L	.	4ff\
8FF/J	.	8a/J	.	.
4r	.	4r	.	(16ff\LL
.	.	.	.	16gg\)
.	.	.	.	16aa|\
.	.	.	.	16bb-|\JJ
=19	=19	=19	=19	=19
2r	.	2r	.	(16aa\LL
.	.	.	.	16bb-\)
.	.	.	.	16ccc|\
.	.	.	.	16ddd|\JJ
.	.	.	.	(16eee-X\LL
.	.	.	.	16ccc\)
.	.	.	.	16eee-|\
.	.	.	.	16ccc|\JJ
=20	=20	=20	=20	=20
!LO:TX:t=P:problem:mixed beam	!	!	!	!
!LO:TX:a:B:t=1	!	!LO:TX:a:B:t=1	!	!
8F\L	.	8c/L	.	8.aa\L
8FF/J	.	8a/J	.	.
.	.	.	.	16ccc\Jk
4r	.	4r	.	16eee-\LL
.	.	.	.	16ccc\
.	.	.	.	16eee-\
.	.	.	.	16ccc\JJ
!	!	!	!	!LO:LB:g=original
=21	=21	=21	=21	=21
!LO:TX:t=P:problem:mixed beam	!	!	!	!
8F\L	.	8c/L	.	8.aa\L
8FF/J	.	8a/J	.	.
.	.	.	.	16ccc\Jk
4r	.	4r	.	16eee-\LL
.	.	.	.	16ccc\
.	.	.	.	16eee-\
.	.	.	.	16ccc\JJ
=22	=22	=22	=22	=22
4F\	.	2c/ 2a	.	16eee-|\LL
.	.	.	.	(16ccc\
.	.	.	.	16eee-\)
.	.	.	.	(16ccc\JJ
!LO:TX:b:Bi:t=rinf	!	!	!	!
(4G-X\	.	.	.	16eee-\LL)
.	.	.	.	(16ccc\
.	.	.	.	16eee-\)
.	.	.	.	(16ccc\JJ
=23	=23	=23	=23	=23
4.F\)	.	[2c/ [2a	.	16eee-\LL)
.	.	.	.	(16ccc\
.	.	.	.	16eee-\)
.	.	.	.	(16ccc\JJ
.	.	.	.	16eee-\LL)
.	.	.	.	(16ccc\
(8G-X\	.	.	.	16eee-\)
.	.	.	.	(16ccc\JJ
=24	=24	=24	=24	=24
4F\)	.	4c/] 4a]	.	16eee-\LL)
.	.	.	.	(16ccc\
.	.	.	.	16aa\)
.	.	.	.	(16ff\JJ
4r	.	4r	.	16ee-\LL)
!LO:LB:g=original	!	!	!	!
.	.	.	.	(16cc\
.	.	.	.	16a\)
.	.	.	.	(16f\JJ
=25	=25	=25	=25	=25
*	*	*^	*	*
8r	.	8ryy	8ryy	pp	4e-/)
8G-X'\L	pp	8a/L	4.c\	.	.
8F'\	.	8a/	.	.	4r
8G-'\J	.	8a/J	.	.	.
*	*	*v	*v	*	*
=26	=26	=26	=26	=26
8F\	.	8c/ 8a	.	16r
.	.	.	.	16f|/LL
8r	.	8r	.	16g|/
.	.	.	.	16a|/JJ
4r	.	4r	.	16b-|\LL
.	.	.	.	16cc|\
.	.	.	.	16dd|\
.	.	.	.	16ee-|\JJ
=27	=27	=27	=27	=27
2r	.	2r	.	16ff\LL
.	.	.	.	16gg\
.	.	.	.	16ff\
.	.	.	.	16een\JJ
.	.	.	.	16ff\LL
.	.	.	.	16gg\
.	.	.	.	16ff\
.	.	.	.	16ee\JJ
=28	=28	=28	=28	=28
!LO:TX:a:B:t=2	!	!LO:TX:a:B:t=2	!	!
2r	.	2r	.	16ff\LL
.	.	.	.	16bb-\
.	.	.	.	16aa\
.	.	.	.	16gg\JJ
.	.	.	.	16ff\LL
.	.	.	.	16ee-X\
.	.	.	.	16dd\
.	.	.	.	16cc\JJ
!	!	!	!	!LO:LB:g=original
=29	=29	=29	=29	=29
4BB-/	p	4f/ 4b-	.	16dd|\LL
.	.	.	.	16ee-|\
.	.	.	.	16dd|\
.	.	.	.	16cc|\JJ
8r	.	8r	.	16dd|\LL
.	.	.	.	16b-|\
8B-\	.	8f/ 8b-	.	16cc|\
!	!	!LO:LB:g=original	!	!
.	.	.	.	16dd|\JJ
=30	=30	=30	=30	=30
4A\	.	4f/ 4cc	.	16ee-\LL
.	.	.	.	16ff\
.	.	.	.	16ee-\
.	.	.	.	16dd\JJ
8r	.	8r	.	16ee-\LL
.	.	.	.	16cc\
8A\	.	8f/ 8cc	.	16ff\
.	.	.	.	16ee-\JJ
=31	=31	=31	=31	=31
4B-\	.	4f/ 4b-	.	16dd\LL
.	.	.	.	16ee-\
.	.	.	.	16dd\
.	.	.	.	16cc\JJ
8r	.	8r	.	16dd\LL
.	.	.	.	16b-\
8B-\	.	8f/ 8b-	.	16ff\
.	.	.	.	16dd\JJ
=32	=32	=32	=32	=32
4F\	.	4f/ 4a	.	16cc/LL
.	.	.	.	16b-/
.	.	.	.	16a/
.	.	.	.	16g/JJ
4r	.	4r	.	16f/LL
.	.	.	.	16a/
.	.	.	.	16b-/
.	.	.	.	16cc/JJ
=33	=33	=33	=33	=33
4B-\	.	4f/ 4b-	.	16dd\LL
.	.	.	.	16ee-\
.	.	.	.	16dd\
.	.	.	.	16cc\JJ
8r	.	8r	.	16dd\LL
.	.	.	.	16b-\
8B-\	.	8f/ 8b-	.	16cc\
.	.	.	.	16dd\JJ
=34	=34	=34	=34	=34
4A\	.	4f/ 4cc	.	16ee-\LL
.	.	.	.	16ff\
.	.	.	.	16ee-\
.	.	.	.	16dd\JJ
8r	.	8r	.	16ee-\LL
.	.	.	.	16cc\
8A\	.	8f/ 8cc	.	16ff\
.	.	.	.	16ee-\JJ
=35	=35	=35	=35	=35
4B-\	.	4f/ 4b-	.	16dd\LL
.	.	.	.	16ff\
.	.	.	.	16ee-\
.	.	.	.	16dd\JJ
8r	.	8r	.	16cc\LL
.	.	.	.	16ee-\
8F\	.	8e-/ 8a	.	16dd\
.	.	.	.	16cc\JJ
!	!	!	!	!LO:LB:g=original
=36	=36	=36	=36	=36
!	!	!	!	!LO:TX:t=P:problem:mixed beam
8B-\L	.	8d/L 8b-	.	8b-\L
8F\	.	8d/ 8b-	.	8bb-\
8BB-\J	.	8d/J 8b-	.	8B-/J
8r	.	8r	.	8r
=37	=37	=37	=37	=37
4GG/	.	4d/ 4b-	.	16dd\LL
.	.	.	.	16ee-\
.	.	.	.	16dd\
.	.	.	.	16cc#X\JJ
4r	.	4r	.	16dd\LL
!LO:LB:g=original	!	!	!	!
.	.	.	.	16ff#X\
.	.	.	.	16gg\
.	.	.	.	16ff#\JJ
=38	=38	=38	=38	=38
4r	.	4r	.	16gg\LL
.	.	.	.	16aa\
.	.	.	.	16bb-\
.	.	.	.	16aa\JJ
8r	.	8r	.	16gg\LL
.	.	.	.	16ffn\
8C/	.	8g/ 8b-	.	16een\
.	.	.	.	16dd\JJ
=39	=39	=39	=39	=39
4F\	.	4f/ 4a	.	16cc\LL
.	.	.	.	16dd\
.	.	.	.	16cc\
.	.	.	.	16bn\JJ
4r	.	4r	.	16cc\LL
.	.	.	.	16een\
.	.	.	.	16ff\
.	.	.	.	16ee\JJ
=40	=40	=40	=40	=40
4r	.	4r	.	16ff\LL
.	.	.	.	16gg\
.	.	.	.	16aa\
.	.	.	.	16gg\JJ
8r	.	8r	.	16ff\LL
.	.	.	.	16een\
8A\	.	8c/ 8f	.	16dd\
.	.	.	.	16cc\JJ
=41	=41	=41	=41	=41
4G\	.	8c/ 8en	.	16b-X\LL
.	.	.	.	16gg\
.	.	4cc\	.	16een\
.	.	.	.	16gg\JJ
8r	.	.	.	16bb-\LL
.	.	.	.	16gg\
8En\	.	[8c/	.	16ee\
.	.	.	.	16b-\JJ
=42	=42	=42	=42	=42
4F\	.	8c/]	.	16a\LL
.	.	.	.	16cc\
.	.	4cc\	.	16ff\
.	.	.	.	16gg\JJ
8r	.	.	.	16aa\LL
.	.	.	.	16ff\
8F\	.	[8c/	.	16cc\
.	.	.	.	16a\JJ
!	!	!	!	!LO:LB:g=original
=43	=43	=43	=43	=43
4G\	.	8c/]	.	16b-\LL
.	.	.	.	16gg\
.	.	4cc\	.	16een\
.	.	.	.	16gg\JJ
8r	.	.	.	16bb-\LL
.	.	.	.	16gg\
8En\	.	[8c/	.	16ee\
.	.	.	.	16b-\JJ
=44	=44	=44	=44	=44
4F\	.	8c/]	.	16a\LL
.	.	.	.	16cc\
.	.	4cc\	.	16ff\
.	.	.	.	16gg\JJ
8r	.	.	.	16aa\LL
.	.	.	.	16ff\
8F\	.	8c/	.	16cc\
!	!	!LO:LB:g=original	!	!
.	.	.	.	16a\JJ
=45	=45	=45	=45	=45
4BB-/	.	4d/	.	16b-\LL
.	.	.	.	16a\
.	.	.	.	16b-\
.	.	.	.	16cc\JJ
4r	.	4r	.	16dd\LL
.	.	.	.	16cc#X\
.	.	.	.	16dd\
.	.	.	.	16cc#\JJ
=46	=46	=46	=46	=46
4BB-/	.	4g/	.	16dd\LL
.	.	.	.	16ccn\
.	.	.	.	16b-\
.	.	.	.	16a\JJ
8r	.	8r	.	16b-/LL
.	.	.	.	16a/
8BBn/	.	8d/	.	16g/
.	.	.	.	16f/JJ
=47	=47	=47	=47	=47
[2C/	.	2G/ 2en	.	16en/LL
.	.	.	.	16cc/
.	.	.	.	16bn/
.	.	.	.	16cc/JJ
.	.	.	.	16gg\LL
.	.	.	.	16cc\
.	.	.	.	16bb-\
.	.	.	.	16cc\JJ
=48	=48	=48	=48	=48
2C/_	.	2A/ 2f	.	16aa\LL
.	.	.	.	16cc\
.	.	.	.	16bn\
.	.	.	.	16cc\JJ
.	.	.	.	16a/LL
.	.	.	.	16cc/
.	.	.	.	16f/
.	.	.	.	16cc/JJ
=49	=49	=49	=49	=49
2C/_	.	2G/ 2en	.	16en/LL
.	.	.	.	16cc/
.	.	.	.	16bn/
.	.	.	.	16cc/JJ
.	.	.	.	16gg\LL
.	.	.	.	16cc\
.	.	.	.	16bb-\
.	.	.	.	16cc\JJ
=50	=50	=50	=50	=50
2C/]	.	2A/ 2f	.	16aa\LL
.	.	.	.	16cc\
.	.	.	.	16bn\
.	.	.	.	16cc\JJ
.	.	.	.	16a/LL
.	.	.	.	16cc/
.	.	.	.	16f/
.	.	.	.	16cc/JJ
!	!	!	!	!LO:LB:g=original
=51	=51	=51	=51	=51
!	!	!	!LO:DY:b:t=F	!
4C/	.	8G/L 8en	f	16en/LL
.	.	.	.	16cc/
.	.	8G/ 8e	.	16eeny/
.	.	.	.	16cc/JJ
8CC/L	.	8G/ 8e	.	16g/LL
.	.	.	.	16cc/
8AA/J	.	8G/J 8e	.	16e/
!LO:LB:g=original	!	!	!	!
.	.	.	.	16g/JJ
=52	=52	=52	=52	=52
4CC/	.	4G/ 4en	.	4c/
4r	.	4r	.	4r
*clefC4	*	*	*	*
=53	=53	=53	=53	=53
*	*	*	*	*^
!	!	!LO:TX:a:i:t=Solo	!	!	!
!LO:TX:b:i:t=Solo	!	!LO:TX:b:i:t=dol	!	!	!
4.a\	.	4.cc\	.	2raa	4.a\ 4.cc
!	!	!	!	!LO:TX:a:B:t=1	!
!LO:TX:b:i:t=dol	!	!	!	!LO:TX:a:B:t=1	!
8g\	.	8b-\	.	.	8g\ 8b-
=54	=54	=54	=54	=54	=54
4.f\	.	4.a/	.	2raa	4.f\ 4.a
!	!	!	!	!LO:TX:a:B:t=2	!
!	!	!	!	!LO:TX:a:B:t=2	!
8c\	.	8g/	.	.	8c\ 8g
=55	=55	=55	=55	=55	=55
8A\L	.	8f/L	.	2raa	8A\L 8f
!	!	!	!	!LO:TX:a:B:t=3	!
!	!	!	!	!LO:TX:a:B:t=3	!
8c\	.	8g/	.	.	8c\ 8g
8f\	.	8a/	.	.	8f\ 8a
8g\J	.	8b-/J	.	.	8g\J 8b-
=56	=56	=56	=56	=56	=56
4a\	.	4cc\	.	4raa	4a\ 4cc
4r	.	4r	.	(16ff/LL	4ryy
.	.	.	.	16gg/	.
.	.	.	.	16aa/	.
.	.	.	.	16bb-/JJ)	.
*	*	*	*	*v	*v
=57	=57	=57	=57	=57
2r	.	2r	.	8ccc\L
.	.	.	.	(16ddd\L
.	.	.	.	16ccc\JJ)
.	.	.	.	(16ddd\LL
.	.	.	.	16ccc\)
.	.	.	.	(16ddd\
.	.	.	.	16ccc\JJ)
=58	=58	=58	=58	=58
!LO:TX:a:B:t=2	!	!LO:TX:a:B:t=2	!	!
2r	.	2r	.	(16fff\LL
.	.	.	.	16eee-\
.	.	.	.	16ddd\
.	.	.	.	16ccc\JJ)
.	.	.	.	(16bb-\LL
.	.	.	.	16aa\
.	.	.	.	16gg\
.	.	.	.	16ff\JJ)
*clefF4	*	*	*	*
=59	=59	=59	=59	=59
!	!	!LO:TX:t=P:problem:mixed beam	!	!
8En\L	.	8cc\L	.	8gg\L
.	.	.	.	8qbb-/
8F\	.	8c/	.	8aa\
8E\	.	8c/	.	8gg\
.	.	.	.	8qbb-/
8F\J	.	8c/J	.	8aa\J
=60	=60	=60	=60	=60
4E-\	.	4c/	.	4gg\
4r	.	4r	.	4r
=61	=61	=61	=61	=61
4r	.	4r	.	(2b-/ 2dd
(4en\	.	(4ddd\	.	.
=62	=62	=62	=62	=62
4f\)	.	4ccc\)	.	8a/L) 8cc
.	.	.	.	(8a/ 8cc
4r	.	4r	.	8g/ 8b-
!	!	!LO:LB:g=original	!	!
.	.	.	.	8f/J) 8a
!	!	!	!	!LO:LB:g=original
=63	=63	=63	=63	=63
4r	.	4r	.	(2g/ 2b-
4c#X\	.	4een\	.	.
=64	=64	=64	=64	=64
!	!	!LO:TX:t=P:problem:mixed beam	!	!
4d\	.	8ff\L	.	4f/) 4a
.	.	8f/	.	.
(4cn\	.	8f/	.	4r
.	.	8f/J	.	.
=65	=65	=65	=65	=65
*	*	*tremolo	*	*
4Bn\)	.	8f/L	p	(8dd/L
.	.	8f/	.	8g/)
4r	.	8f/	.	8g|/
!LO:LB:g=original	!	!	!	!
.	.	8f/J	.	8g|/J
=66	=66	=66	=66	=66
8r	.	8f/L	.	4g/
8d'\L	p	8f/	.	.
8Bn'\	.	8f/	.	4r
8d'\J	.	8f/J	.	.
=67	=67	=67	=67	=67
4Bn\	.	8f/L	.	(8dd/L
.	.	8f/	.	8a-X/)
4r	.	8f/	.	8a-|/
.	.	8f/J	.	8a-|/J
=68	=68	=68	=68	=68
8r	.	8f/L	.	4a-X/
8d\L	.	8f/	.	.
8Bn\	.	8f/	.	4r
8d\J	.	8f/J	.	.
=69	=69	=69	=69	=69
4c\	.	8f/L	.	4.an/
.	.	8f/	.	.
4r	.	8f/	.	.
.	.	8f/J	.	8b-\
*	*	*Xtremolo	*	*
=70	=70	=70	=70	=70
.	.	.	.	8qa/
4C/	.	8f/L	.	2gT/
.	.	8f/	.	.
4C/	.	8en/	.	.
.	.	8B-/J	.	.
=71	=71	=71	=71	=71
4F\	.	4A/	.	16a\LL
.	.	.	.	16cc\
.	.	.	.	16ff\
.	.	.	.	16cc\JJ
4r	.	4r	.	16f\LL
.	.	.	.	16cc\
.	.	.	.	16ff\
.	.	.	.	16cc\JJ
=72	=72	=72	=72	=72
8r	.	8r	.	16a\LL
.	.	.	.	16cc\
8F\L	.	8ccc\L	.	16aa\
.	.	.	.	16cc\JJ
8B-X\	.	8ccc\	.	16gg\LL
.	.	.	.	16cc\
8A\J	.	8ccc\J	.	16ff\
.	.	.	.	16cc\JJ
=73	=73	=73	=73	=73
4G\	.	4ccc\	.	16b-\LL
.	.	.	.	16cc\
.	.	.	.	16een\
.	.	.	.	16cc\JJ
4r	.	4r	.	16g\LL
.	.	.	.	16cc\
.	.	.	.	16ee\
.	.	.	.	16cc\JJ
=74	=74	=74	=74	=74
8r	.	8r	.	16en\LL
.	.	.	.	16cc\
8G\L	.	8ccc\L	.	16bb-\
.	.	.	.	16cc\JJ
8F\	.	8ccc\	.	16aa\LL
.	.	.	.	16cc\
8En\J	.	8ccc\J	.	16gg\
.	.	.	.	16cc\JJ
!	!	!	!	!LO:LB:g=original
=75	=75	=75	=75	=75
4F\	.	4ccc\	.	16a\LL
.	.	.	.	16cc\
.	.	.	.	16ff\
.	.	.	.	16cc\JJ
4r	.	4r	.	16f\LL
!LO:PB:g=original	!	!	!	!
.	.	.	.	16cc\
.	.	.	.	16ff\
.	.	.	.	16cc\JJ
=76	=76	=76	=76	=76
8r	.	8r	.	16a\LL
.	.	.	.	16cc\
8F\L	.	8ccc\L	.	16aa\
.	.	.	.	16cc\JJ
8B-\	.	8ccc\	.	16gg\LL
.	.	.	.	16cc\
8A\J	.	8ccc\J	.	16ff\
.	.	.	.	16cc\JJ
=77	=77	=77	=77	=77
4G\	.	4ccc\	.	16b-\LL
.	.	.	.	16cc\
.	.	.	.	16een\
.	.	.	.	16cc\JJ
4r	.	4r	.	16g\LL
.	.	.	.	16cc\
.	.	.	.	16ee\
.	.	.	.	16cc\JJ
=78	=78	=78	=78	=78
8r	.	8r	.	16en\LL
.	.	.	.	16cc\
8G\L	.	8ccc\L	.	16bb-\
.	.	.	.	16cc\JJ
8F\	.	8ccc\	.	16aa\LL
.	.	.	.	16cc\
8En\J	.	8ccc\J	.	16gg\
!	!	!LO:LB:g=original	!	!
.	.	.	.	16cc\JJ
=79	=79	=79	=79	=79
4F\	.	4ccc\	.	16a\LL
.	.	.	.	16cc\
.	.	.	.	16ff\
.	.	.	.	16cc\JJ
4r	.	4r	.	16a\LL
.	.	.	.	16cc\
.	.	.	.	16ff\
.	.	.	.	16cc\JJ
=80	=80	=80	=80	=80
4r	.	2r	.	16a\LL
.	.	.	.	16cc\
.	.	.	.	16ff#X\
.	.	.	.	16cc\JJ
4D\	.	.	.	16a\LL
.	.	.	.	16cc\
.	.	.	.	16ff#\
.	.	.	.	16cc\JJ
=81	=81	=81	=81	=81
!	!	!LO:TX:a:B:t=5	!	!
4G\	.	2r	.	16b-\LL
.	.	.	.	16dd\
.	.	.	.	16gg\
.	.	.	.	16dd\JJ
4r	.	.	.	16b-\LL
.	.	.	.	16dd\
.	.	.	.	16gg\
.	.	.	.	16dd\JJ
=82	=82	=82	=82	=82
4r	.	2r	.	16b-\LL
.	.	.	.	16dd-X\
.	.	.	.	16een\
.	.	.	.	16dd-\JJ
4C/	.	.	.	16b-\LL
.	.	.	.	16cc\
.	.	.	.	16ee\
.	.	.	.	16cc\JJ
!	!	!	!	!LO:LB:g=original
=83	=83	=83	=83	=83
4F\	.	2r	.	16a\LL
.	.	.	.	16cc\
.	.	.	.	16ff\
.	.	.	.	16cc\JJ
4BB-/	.	.	.	16b-\LL
.	.	.	.	16dd\
.	.	.	.	16gg\
.	.	.	.	16dd\JJ
=84	=84	=84	=84	=84
4C/	.	2r	.	16a\LL
.	.	.	.	16cc\
.	.	.	.	16ff\
.	.	.	.	16cc\JJ
4c\	.	.	.	16g\LL
.	.	.	.	16b-\
.	.	.	.	16een\
.	.	.	.	16b-\JJ
=85	=85	=85	=85	=85
4F\	.	8r	.	16a\LL
.	.	.	.	16cc\
.	.	8a\L	.	16ff\
.	.	.	.	16cc\JJ
4r	.	8ff\	.	16f\LL
.	.	.	.	16cc\
.	.	8aa\J	.	16ff\
.	.	.	.	16cc\JJ
=86	=86	=86	=86	=86
8r	.	4ccc\	.	16a\LL
.	.	.	.	16cc\
8F\L	p	.	.	16aa\
.	.	.	.	16cc\JJ
8B-\	.	4r	.	16gg\LL
.	.	.	.	16cc\
8A\J	.	.	.	16ff\
.	.	.	.	16cc\JJ
!	!	!	!	!LO:LB:g=original
=87	=87	=87	=87	=87
4G\	.	8r	.	16b-\LL
.	.	.	.	16cc\
.	.	8cc\L	.	16een\
.	.	.	.	16cc\JJ
4r	.	8een\	.	16g\LL
.	.	.	.	16cc\
.	.	8gg\J	.	16ee\
.	.	.	.	16cc\JJ
=88	=88	=88	=88	=88
8r	.	4ccc\	.	16en\LL
.	.	.	.	16cc\
8G\L	.	.	.	16bb-\
.	.	.	.	16cc\JJ
8F\	.	4r	.	16aa\LL
.	.	.	.	16cc\
8En\J	.	.	.	16gg\
!LO:LB:g=original	!	!	!	!
.	.	.	.	16cc\JJ
=89	=89	=89	=89	=89
4F\	.	8r	.	16a\LL
.	.	.	.	16cc\
.	.	8cc\L	.	16ff\
.	.	.	.	16cc\JJ
4r	.	8ff\	.	16f\LL
.	.	.	.	16cc\
.	.	8aa\J	.	16ff\
.	.	.	.	16cc\JJ
=90	=90	=90	=90	=90
8r	.	4ccc\	.	16a\LL
.	.	.	.	16cc\
8F\L	.	.	.	16aa\
.	.	.	.	16cc\JJ
8B-\	.	4r	.	16gg\LL
.	.	.	.	16cc\
8A\J	.	.	.	16ff\
.	.	.	.	16cc\JJ
!	!	!	!	!LO:LB:g=original
=91	=91	=91	=91	=91
4G\	.	8r	.	16b-\LL
.	.	.	.	16cc\
.	.	8cc\L	.	16een\
.	.	.	.	16cc\JJ
4r	.	8een\	.	16g\LL
.	.	.	.	16cc\
.	.	8gg\J	.	16ee\
.	.	.	.	16cc\JJ
=92	=92	=92	=92	=92
8r	.	4ccc\	.	16en\LL
.	.	.	.	16cc\
8G\L	.	.	.	16bb-\
.	.	.	.	16cc\JJ
8F\	.	4r	.	16aa\LL
.	.	.	.	16cc\
8En\J	.	.	.	16gg\
.	.	.	.	16cc\JJ
=93	=93	=93	=93	=93
4F\	.	2r	.	16a\LL
.	.	.	.	16cc\
.	.	.	.	16ff\
.	.	.	.	16cc\JJ
4r	.	.	.	16a\LL
.	.	.	.	16cc\
.	.	.	.	16ff\
.	.	.	.	16cc\JJ
=94	=94	=94	=94	=94
!LO:TX:a:B:t=1	!	!	!	!
2r	.	8r	.	16a\LL
.	.	.	.	16ff\
.	.	8f/L 8a	.	16gg-X\
.	.	.	.	16ff\JJ
.	.	8f/ 8a	.	16gg-\LL
.	.	.	.	16ff\
.	.	8f/J 8a	.	16gg-\
.	.	.	.	16ff\JJ
=95	=95	=95	=95	=95
!LO:TX:a:B:t=3	!	!	!	!
2r	.	4f/ 4a	.	16a\LL
.	.	.	.	16cc\
.	.	.	.	16ff\
.	.	.	.	16cc\JJ
.	.	4r	.	16a\LL
.	.	.	.	16cc\
.	.	.	.	16ff\
.	.	.	.	16cc\JJ
=96	=96	=96	=96	=96
*	*	*	*	*^
2r	.	8r	.	2ff/	16a\LL
.	.	.	.	.	16cc\
.	.	8f/L 8a	.	.	16ee-\
.	.	.	.	.	16cc\JJ
.	.	8f/ 8a	.	.	16ee-\LL
.	.	.	.	.	16cc\
.	.	8f/J 8a	.	.	16ee-\
.	.	.	.	.	16cc\JJ
*	*	*	*	*v	*v
=97	=97	=97	=97	=97
4BB-/	.	4f/ 4b-	p	16dd\LL
.	.	.	.	16ee-\
.	.	.	.	16dd\
.	.	.	.	16cc\JJ
8r	.	8r	.	16dd\LL
.	.	.	.	16b-\
8B-\	.	8f/ 8b-	.	16cc\
.	.	.	.	16dd\JJ
=98	=98	=98	=98	=98
4A\	.	4f/ 4cc	.	16ee-\LL
.	.	.	.	16ff\
.	.	.	.	16ee-\
.	.	.	.	16dd\JJ
8r	.	8r	.	16ee-\LL
.	.	.	.	16cc\
8A\	.	8f/ 8cc	.	16ff\
!	!	!LO:LB:g=original	!	!
.	.	.	.	16ee-\JJ
!	!	!	!	!LO:LB:g=original
=99	=99	=99	=99	=99
4B-\	.	4f/ 4b-	.	16dd\LL
.	.	.	.	16ee-\
.	.	.	.	16dd\
.	.	.	.	16cc\JJ
8r	.	8r	.	16dd\LL
.	.	.	.	16b-\
8BB-/	.	8f/ 8b-	.	16ff\
.	.	.	.	16dd\JJ
=100	=100	=100	=100	=100
4F\	.	4f/ 4a	.	16cc/LL
.	.	.	.	16b-/
.	.	.	.	16a/
.	.	.	.	16g/JJ
4r	.	4r	.	16f/LL
.	.	.	.	16a/
.	.	.	.	16b-/
.	.	.	.	16cc/JJ
=101	=101	=101	=101	=101
4B-\	.	4f/ 4b-	.	16dd\LL
.	.	.	.	16ee-\
.	.	.	.	16dd\
.	.	.	.	16cc\JJ
8r	.	8r	.	16dd\LL
.	.	.	.	16b-\
8B-\	.	8f/ 8b-	.	16cc\
.	.	.	.	16dd\JJ
=102	=102	=102	=102	=102
4B-\	.	4g/ 4cc	.	16een\LL
.	.	.	.	16ff\
.	.	.	.	16ee\
.	.	.	.	16dd\JJ
8r	.	8r	.	16ee\LL
.	.	.	.	16cc\
8B-\	.	8g/ 8cc	.	16dd\
!LO:LB:g=original	!	!	!	!
.	.	.	.	16ee\JJ
=103	=103	=103	=103	=103
8A\L	.	8f/L 8cc	.	16ff\LL
.	.	.	.	16een\
8F\	.	8cc/J	.	16ff\
.	.	.	.	16aa\JJ
8En\	.	8r	.	16gg\LL
.	.	.	.	16bb-\
8C\J	.	8b-\	.	16ee\
.	.	.	.	16gg\JJ
=104	=104	=104	=104	=104
!LO:TX:t=P:problem:mixed beam	!	!	!	!
8F\L	.	4a/	.	4ff\
8FF/J	.	.	.	.
4r	.	4r	.	16ff\LL
.	.	.	.	16gg\
.	.	.	.	16ff\
.	.	.	.	16een\JJ
=105	=105	=105	=105	=105
2r	.	2r	.	16ff\LL
.	.	.	.	16gg\
.	.	.	.	16aa\
.	.	.	.	16bb-\JJ
.	.	.	.	16ccc\LL
.	.	.	.	16aa\
.	.	.	.	16ccc\
.	.	.	.	16aa\JJ
=106	=106	=106	=106	=106
!LO:TX:t=P:problem:mixed beam	!	!	!	!
!LO:TX:a:B:t=1	!	!LO:TX:a:B:t=1	!	!
8F\L	.	8c/L	.	4ff\
8FF/J	.	8a/J	.	.
4r	.	4r	.	16ff\LL
.	.	.	.	16gg\
.	.	.	.	16aa\
.	.	.	.	16bb-\JJ
!	!	!	!	!LO:LB:g=original
=107	=107	=107	=107	=107
2r	.	2r	.	16aa\LL
.	.	.	.	16bb-\
.	.	.	.	16ccc\
.	.	.	.	16ddd\JJ
.	.	.	.	16eee-\LL
.	.	.	.	16ccc\
.	.	.	.	16eee-\
.	.	.	.	16ccc\JJ
=108	=108	=108	=108	=108
!LO:TX:t=P:problem:mixed beam	!	!	!	!
!LO:TX:a:B:t=1	!	!LO:TX:a:B:t=1	!	!
8F\L	.	8c/L	.	8.aa\L
8FF/J	.	8a/J	.	.
.	.	.	.	16ccc\Jk
4r	.	4r	.	16eee-\LL
.	.	.	.	16ccc\
.	.	.	.	16eee-\
.	.	.	.	16ccc\JJ
=109	=109	=109	=109	=109
!LO:TX:t=P:problem:mixed beam	!	!	!	!
8F\L	.	8c/L	.	8.aa\L
8FF/J	.	8a/J	.	.
.	.	.	.	16ccc\Jk
4r	.	4r	.	16eee-\LL
.	.	.	.	16ccc\
.	.	.	.	16eee-\
.	.	.	.	16ccc\JJ
=110	=110	=110	=110	=110
!LO:TX:b:Bi:t=rinf	!	!	!	!
4F\	.	[2c/ [2a	.	16eee-\LL
.	.	.	.	(16ccc\
.	.	.	.	16eee-\)
.	.	.	.	(16ccc\JJ
(4G-X\	.	.	.	16eee-\LL)
.	.	.	.	(16ccc\
.	.	.	.	16eee-\)
.	.	.	.	(16ccc\JJ
=111	=111	=111	=111	=111
4.F\)	.	2c/_ 2a_	.	16eee-\LL)
.	.	.	.	(16ccc\
.	.	.	.	16eee-\)
.	.	.	.	(16ccc\JJ
.	.	.	.	16eee-\LL)
.	.	.	.	(16ccc\
(8G-X\	.	.	.	16eee-\)
.	.	.	.	(16ccc\JJ
=112	=112	=112	=112	=112
8F\)	.	8c/] 8a]	.	16eee-\LL)
.	.	.	.	(16ccc\
8r	.	8r	.	16aa\)
.	.	.	.	(16ff\JJ
4r	.	4r	.	16ee-\LL)
.	.	.	.	(16cc\
.	.	.	.	16a\)
.	.	.	.	(16f\JJ
=113	=113	=113	=113	=113
8r	.	8r	.	4e-/)
(8G-X\L	p	8c/L 8a	p	.
8F\)	.	8c/ 8a	.	4r
8F\J	.	8c/J 8a	.	.
!LO:LB:g=original	!	!	!	!
=114	=114	=114	=114	=114
8F\	.	8c/ 8a	.	16r
.	.	.	.	16f/LL
8r	.	8r	.	16g/
.	.	.	.	16a/JJ
4r	.	4r	.	16b-\LL
.	.	.	.	16cc\
.	.	.	.	16dd\
.	.	.	.	16een\JJ
=115	=115	=115	=115	=115
2r	.	2r	.	16ff\LL
.	.	.	.	16gg\
.	.	.	.	16ff\
.	.	.	.	16een\JJ
.	.	.	.	16ff\LL
.	.	.	.	16gg\
.	.	.	.	16ff\
.	.	.	.	16ee\JJ
!	!	!	!	!LO:LB:g=original
=116	=116	=116	=116	=116
!LO:TX:a:B:t=2	!	!LO:TX:a:B:t=2	!	!
2r	.	2r	.	16ff\LL
!	!	!LO:LB:g=original	!	!
.	.	.	.	16bb-\
.	.	.	.	16aa\
.	.	.	.	16gg\JJ
.	.	.	.	16ff\LL
.	.	.	.	16ee-X\
.	.	.	.	16dd\
.	.	.	.	16cc\JJ
=117	=117	=117	=117	=117
[2BB-/	pp	8B-/L	.	16dd\LL
.	.	.	.	16ee-\
.	.	8f/	.	16dd\
.	.	.	.	16cc\JJ
.	.	8b-/	.	16dd\LL
.	.	.	.	16b-\
.	.	8f/J	.	16cc\
.	.	.	.	16dd\JJ
=118	=118	=118	=118	=118
2BB-/_	.	8c/L	.	16ee-\LL
.	.	.	.	16ff\
.	.	8f/	.	16ee-\
.	.	.	.	16dd\JJ
.	.	8a/	.	16ee-\LL
.	.	.	.	16cc\
.	.	8f/J	.	16ff\
.	.	.	.	16ee-\JJ
=119	=119	=119	=119	=119
2BB-/]	.	8B-/L	.	16dd\LL
.	.	.	.	16ee-\
.	.	8f/	.	16dd\
.	.	.	.	16cc\JJ
.	.	8b-/	.	16dd\LL
.	.	.	.	16b-\
.	.	8f/J	.	16ff\
.	.	.	.	16dd\JJ
=120	=120	=120	=120	=120
4FF/	.	4a/	.	16cc/LL
.	.	.	.	16b-/
.	.	.	.	16a/
.	.	.	.	16g/JJ
4r	.	4r	.	16f/LL
.	.	.	.	16a/
.	.	.	.	16b-/
.	.	.	.	16cc/JJ
=121	=121	=121	=121	=121
[2BB-/	.	8B-/L	.	16dd\LL
.	.	.	.	16ee-\
.	.	8f/	.	16dd\
.	.	.	.	16cc\JJ
.	.	8b-/	.	16dd\LL
.	.	.	.	16b-\
.	.	8f/J	.	16cc\
.	.	.	.	16dd\JJ
=122	=122	=122	=122	=122
2BB-/_	.	8c/L	.	16ee-\LL
.	.	.	.	16ff\
.	.	8f/	.	16ee-\
.	.	.	.	16dd\JJ
.	.	8a/	.	16ee-\LL
.	.	.	.	16cc\
.	.	8f/J	.	16ff\
.	.	.	.	16ee-\JJ
=123	=123	=123	=123	=123
8BB-/]	.	8r	.	16dd\LL
.	.	.	.	16ff\
8r	.	8f/ 8b-	.	16ee-\
.	.	.	.	16dd\JJ
8F\	.	8r	.	16cc\LL
.	.	.	.	16ee-\
8r	.	8e-/ 8a	.	16dd\
.	.	.	.	16cc\JJ
!	!	!	!	!LO:PB:g=original
=124	=124	=124	=124	=124
!	!	!	!	!LO:TX:t=P:problem:mixed beam
4BB-/	.	8r	.	8b-\L
.	.	8d/L 8b-	.	8bb-\
4r	.	8d/J 8b-	.	8B-/J
.	.	8r	.	8r
=125	=125	=125	=125	=125
!LO:TX:b:Bi:t=rinf	!	!	!	!
4GG/ 4G	.	4d/ 4b-	.	16bb-\LL
.	.	.	.	16ddd\
.	.	.	.	16ccc\
.	.	.	.	16bb-\JJ
4r	.	4r	.	16aa\LL
.	.	.	.	16ccc\
.	.	.	.	16bb-\
.	.	.	.	16aa\JJ
=126	=126	=126	=126	=126
2r	.	2r	.	16gg\LL
.	.	.	.	16bb-\
.	.	.	.	16aa\
.	.	.	.	16gg\JJ
.	.	.	.	16ff#X\LL
.	.	.	.	16aa\
.	.	.	.	16gg\
.	.	.	.	16ff#\JJ
=127	=127	=127	=127	=127
*	*	*^	*	*
!LO:TX:a:B:t=1	!	!LO:TX:a:B:t=1	!	!	!
8G\L	.	8b-/L	2d\	.	16gg\LL
.	.	.	.	.	16dd\
8F#X\	.	8cc/	.	.	16bb-\
.	.	.	.	.	16aa\JJ
8G\	.	8b-/	.	.	16gg\LL
.	.	.	.	.	16dd\
8F#\J	.	8cc/J	.	.	16bb-\
.	.	.	.	.	16aa\JJ
=128	=128	=128	=128	=128	=128
8G\L	.	8b-/L	4.d\	.	16gg\LL
.	.	.	.	.	16dd\
8F#X\	.	8cc/	.	.	16bb-\
.	.	.	.	.	16aa\JJ
8G\J	.	8b-/J	.	.	16gg\LL
.	.	.	.	.	16aa\
8r	.	8rb	8ryy	.	16bb-\
.	.	.	.	.	16ccc\JJ
*	*	*v	*v	*	*
=129	=129	=129	=129	=129
2r	.	2r	.	16bb-\LL
.	.	.	.	16ddd\
.	.	.	.	16ccc\
.	.	.	.	16bb-\JJ
.	.	.	.	16aa\LL
.	.	.	.	16ccc\
.	.	.	.	16bb-\
.	.	.	.	16aa\JJ
=130	=130	=130	=130	=130
!LO:TX:a:B:t=2	!	!LO:TX:a:B:t=2	!	!
2r	.	2r	.	16gg\LL
!LO:LB:g=original	!	!	!	!
.	.	.	.	16bb-\
.	.	.	.	16aa\
.	.	.	.	16gg\JJ
.	.	.	.	16ff#X\LL
.	.	.	.	16aa\
.	.	.	.	16gg\
.	.	.	.	16ff#\JJ
=131	=131	=131	=131	=131
*	*	*^	*	*
8G\L	.	8b-/L	2d\	.	16gg\LL
.	.	.	.	.	16dd\
8F#X\	.	8cc/	.	.	16bb-\
.	.	.	.	.	16aa\JJ
8G\	.	8b-/	.	.	16gg\LL
.	.	.	.	.	16dd\
8F#\J	.	8cc/J	.	.	16bb-\
.	.	.	.	.	16aa\JJ
!	!	!	!	!	!LO:LB:g=original
=132	=132	=132	=132	=132	=132
8G\L	.	8b-/L	4.d\	.	16gg\LL
.	.	.	.	.	16dd\
8F#X\	.	8cc/	.	.	16bb-\
.	.	.	.	.	16aa\JJ
8G\J	.	8b-/J	.	.	8gg\
8r	.	8rb	8ryy	.	8r
!	!	!LO:LB:g=original	!	!	!
*	*	*v	*v	*	*
=133	=133	=133	=133	=133
[2Fn\	>	[2d/ 2bn	.	(16aa-X\LL
.	.	.	.	16ff\
.	.	.	.	16ee-\
.	.	.	.	16bn\JJ
.	.	.	.	16a-y/LL
.	.	.	.	16f/
.	.	.	.	16d/
.	.	.	.	16Bny/JJ)
=134	=134	=134	=134	=134
4F\]	.	4d/] 4b-	.	(16Bn/LL
.	.	.	.	16d/
.	.	.	.	16f/
.	.	.	.	16a-X/JJ
4r	]	4r	.	16bny\LL
.	.	.	.	16dd\
.	.	.	.	16ff\
.	.	.	.	16aa-y\JJ)
=135	=135	=135	=135	=135
2E-X\	>	[2g/ [2cc	>	(16gg\LL
.	.	.	.	16ee-\
.	.	.	.	16cc\
.	.	.	.	16g\JJ
.	.	.	.	16e-/LL
.	.	.	.	16c/
.	.	.	.	16G/
.	.	.	.	16c/JJ)
=136	=136	=136	=136	=136
4E-\	.	4g/] 4cc]	]	(16G/LL
.	.	.	.	16c/
.	.	.	.	16e-/
.	.	.	.	16g/JJ
4r	]	4r	.	16cc\LL
.	.	.	.	16ee-\
.	.	.	.	16gg\
.	.	.	.	16ccc\JJ)
=137	=137	=137	=137	=137
[2e-\	.	8cc\L	.	(16gg\LL
.	.	.	.	16ff#X\)
.	.	8a\	.	(16ccc\
.	.	.	.	16ff#\JJ)
.	.	8cc\	.	(16gg\LL
.	.	.	.	16ff#\)
.	.	8a\J	.	(16ccc\
.	.	.	.	16ff#\JJ)
=138	=138	=138	=138	=138
4e-\]	.	8cc\L	.	(16gg\LL
.	.	.	.	16ff#X\)
.	.	8a\	.	(16ccc\
.	.	.	.	16ff#\JJ)
4d\	.	8cc\	.	(16gg\LL
.	.	.	.	16ff#\)
.	.	8a\J	.	(16ccc\
.	.	.	.	16ff#\JJ)
=139	=139	=139	=139	=139
4G\	.	4bn\	.	(16gg\LL
.	.	.	.	16bbn\
.	.	.	.	16aan\
.	.	.	.	16gg\JJ)
4r	.	4r	.	(16gg\LL
.	.	.	.	16bb\
.	.	.	.	16aa\
.	.	.	.	16gg\JJ)
!	!	!	!	!LO:LB:g=original
=140	=140	=140	=140	=140
2r	.	2r	.	(16gg\LL
.	.	.	.	16bbn\
.	.	.	.	16aany\
.	.	.	.	16gg\JJ)
.	.	.	.	(16gg\LL
.	.	.	.	16bb\
.	.	.	.	16aa\
.	.	.	.	16gg\JJ)
=141	=141	=141	=141	=141
!LO:TX:a:B:t=1	!	!LO:TX:a:B:t=1	!	!
[2E-\	.	8cc\L	.	(16gg\LL
.	.	.	.	16ff#X\)
.	.	8a\	.	(16ccc\
.	.	.	.	16ff#\JJ)
.	.	8cc\	.	(16gg\LL
.	.	.	.	16ff#\)
.	.	8a\J	.	(16ccc\
.	.	.	.	16ff#\JJ)
=142	=142	=142	=142	=142
4E-\]	.	8cc\L	.	(16gg\LL
.	.	.	.	16ff#y\)
.	.	8a\	.	(16ccc\
.	.	.	.	16ff#\JJ)
4D\	.	8cc\	.	(16gg\LL
.	.	.	.	16ff#\)
.	.	8a\J	.	(16ccc\
.	.	.	.	16ff#\JJ)
=143	=143	=143	=143	=143
4GG/	.	16g/LL	p	[2ggT\
.	.	16bn/	.	.
.	.	16a/	.	.
.	.	16g/JJ	.	.
4r	.	16a/LL	.	.
.	.	16cc/	.	.
.	.	16b/	.	.
.	.	16a/JJ	.	.
=144	=144	=144	=144	=144
2r	.	16bn\LL	.	2ggT\_
.	.	16dd\	.	.
.	.	16cc\	.	.
.	.	16b\JJ	.	.
.	.	16cc\LL	.	.
.	.	16ee-\	.	.
.	.	16dd\	.	.
.	.	16cc\JJ	.	.
=145	=145	=145	=145	=145
!LO:TX:a:B:t=3	!	!	!	!
2r	.	16dd\LL	.	2ggT\]
.	.	16ff\	.	.
.	.	16een\	.	.
.	.	16dd\JJ	.	.
.	.	16ee\LL	.	.
.	.	16gg\	.	.
.	.	16ff\	.	.
.	.	16ee\JJ	.	.
!	!	!LO:LB:g=original	!	!
=146	=146	=146	=146	=146
2r	.	16ff\LL	pp	4.ggT\
.	.	16gg\	.	.
.	.	16ff\	.	.
.	.	16een\JJ	.	.
.	.	16dd\LL	.	.
.	.	16cc\	.	.
.	.	16bn\	.	8ffn\
.	.	16a\JJ	.	.
=147	=147	=147	=147	=147
!	!	!	!	!LO:TX:b:i:t=dol
2c\	p	[2g/	.	4een\
!LO:LB:g=original	!	!	!	!
.	.	.	.	4gg\
=148	=148	=148	=148	=148
2Bn\	.	2g/]	.	4dd\
.	.	.	.	4gg\
=149	=149	=149	=149	=149
4A\	.	[4d/ [4a	.	4gg\
!LO:TX:b:t=lento	!	!	!	!
4d;\	.	8.d;/] 8.a]	.	4ff#Xt;\
.	.	16d/ 16cc	.	.
8qqc/L	.	.	.	.
8qqBn/	.	.	.	.
8qqA/J	.	.	.	.
=150	=150	=150	=150	=150
4G;\	.	4d;/ 4bn	.	4gg\
4r	.	4r	.	4r;
=151	=151	=151	=151	=151
2e-X\	.	[2b-X\	.	(4gg\
.	.	.	.	4bb-X\)
=152	=152	=152	=152	=152
2d\	.	4b-\]	.	(4ffn\
.	.	4r	.	4bb-\)
=153	=153	=153	=153	=153
4c\	.	2r	.	8ee-\L
.	.	.	.	8bb-\
4B-X\	.	.	.	8dd\
.	.	.	.	8bb-\J
=154	=154	=154	=154	=154
!	!	!LO:TX:a:B:t=2	!	!
4A-X\	.	2r	.	8cc\L
.	.	.	.	8bb-\
4G\	.	.	.	8b-\
.	.	.	.	8bb-\J
!	!	!	!	!LO:LB:g=original
=155	=155	=155	=155	=155
!LO:TX:t=P:problem:mixed beam	!	!	!	!
8F\L	.	8d/L	.	(2b-\ 2aa-X
8B-\	.	8f/	.	.
8BB-/	.	8d/	.	.
8B-\J	.	8f/J	.	.
=156	=156	=156	=156	=156
8E-\L	.	4e-X/	.	4b-\) 4gg
8B-\	.	.	.	.
8G\	.	4r	.	4r
8E-\J	.	.	.	.
=157	=157	=157	=157	=157
4A-X\	.	2r	.	8cc\L
.	.	.	.	(16ff\L
.	.	.	.	16een\JJ)
4r	.	.	.	(16gg\LL
.	.	.	.	16ff\)
.	.	.	.	(16aa-y\
.	.	.	.	16gg\JJ)
=158	=158	=158	=158	=158
!	!	!LO:TX:a:B:t=2	!	!
2r	.	2r	.	(16bb-\LL
.	.	.	.	16aa-X\)
.	.	.	.	(16ccc\
.	.	.	.	16bb-\JJ)
.	.	.	.	8qddd/
.	.	.	.	8ccc\L
.	.	.	.	16aa-\L
.	.	.	.	16ff\JJ
=159	=159	=159	=159	=159
.	.	.	.	8qqee-/L
!LO:TX:a:B:t=1	!	!	!	!
.	.	.	.	8qqff/J
4B-\	.	8r	.	[2gg\
.	.	(16e-/LL	.	.
.	.	16g/JJ)	.	.
4r	.	8b-\L	.	.
.	.	8ee-\J	.	.
=160	=160	=160	=160	=160
[2Bn\	.	8r	.	8gg\L]
!LO:LB:g=original	!	!	!	!
.	.	(16d/LL	.	8ff|\
.	.	16f/JJ)	.	.
.	.	8a-X/L	.	8ff|\
.	.	8a-/J	.	8ff|\J
=161	=161	=161	=161	=161
4Bn;\]	.	4a-X;/	.	4d;/ 4ff
4r	.	4r	.	4r
=162	=162	=162	=162	=162
2c\	.	[2g/	p	(4een\
.	.	.	.	4gg\)
=163	=163	=163	=163	=163
2Bn\	.	4g/]	.	(4dd\
.	.	4r	.	4gg\)
=164	=164	=164	=164	=164
4A\	.	2r	.	8cc\L
.	.	.	.	8gg\
4G\	.	.	.	8bn\
.	.	.	.	8gg\J
=165	=165	=165	=165	=165
!	!	!LO:TX:a:B:t=2	!	!
4F\	.	2r	.	8a\L
!	!	!LO:LB:g=original	!	!
.	.	.	.	8gg\
4En\	.	.	.	8g\
.	.	.	.	8gg\J
=166	=166	=166	=166	=166
!LO:TX:t=P:problem:mixed beam	!	!	!	!
8D\L	.	8Bn/L	.	2g\ 2ff
8G\	.	8d/	.	.
8GG/	.	8B/	.	.
8G\J	.	8d/J	.	.
=167	=167	=167	=167	=167
4C/	.	4c/	.	4g\ 4een
4r	.	4r	.	4r
=168	=168	=168	=168	=168
4F\	.	2r	.	8a\L
.	.	.	.	16dd\L
.	.	.	.	16cc#X\JJ
4r	.	.	.	16een\LL
.	.	.	.	16dd\
.	.	.	.	16ff\
.	.	.	.	16ee\JJ
!	!	!	!	!LO:LB:g=original
=169	=169	=169	=169	=169
!	!	!LO:TX:a:B:t=2	!	!
4F\	.	2r	.	16gg\LL
.	.	.	.	16ff\
.	.	.	.	16aa\
.	.	.	.	16gg#X\JJ
.	.	.	.	8qqbbn/
4r	.	.	.	8aa\L
.	.	.	.	16ff\L
.	.	.	.	16dd\JJ
=170	=170	=170	=170	=170
.	.	.	.	8qqee-/L
.	.	.	.	8qqdd/J
4G\	.	4r	.	4cc\
4r	.	(4d#X/	.	[4cc\
=171	=171	=171	=171	=171
4GG/	.	8e-/L	.	4cc\]
.	.	8e-/J)	.	.
.	.	.	.	8qqee-/
4GG/	.	4f/	.	4dd\
=172	=172	=172	=172	=172
!	!	!LO:TX:t=P:problem:mixed beam	!	!
4C/	.	8en/L	.	16cc\LL
.	.	.	.	16een\
.	.	8gg\	.	16g\
.	.	.	.	16ee\JJ
4r	.	8een\	.	16cc\LL
.	.	.	.	16ee\
.	.	8cc\J	.	16gg\
.	.	.	.	16ee\JJ
=173	=173	=173	=173	=173
8C\L	.	4g/	.	16cc\LL
.	.	.	.	16een\
8En\	.	.	.	16g\
.	.	.	.	16ee\JJ
8G\	.	4r	.	16cc\LL
.	.	.	.	16ee\
8c\J	.	.	.	16ccc\
!LO:LB:g=original	!	!	!	!
.	.	.	.	16ee\JJ
=174	=174	=174	=174	=174
8Bn\	.	4ggT\	.	16dd\LL
.	.	.	.	16ff\
8r	.	.	.	16g\
.	.	.	.	16ff\JJ
8B\	.	8gg\L	.	16dd\LL
.	.	.	.	16ff\
8r	.	8gg\J	.	16g\
.	.	.	.	16ff\JJ
=175	=175	=175	=175	=175
8Bn\	.	4gg\	.	16dd\LL
.	.	.	.	16ff\
8r	.	.	.	16g\
.	.	.	.	16ff\JJ
4G\	.	4r	.	16gg\LL
.	.	.	.	16ff\
.	.	.	.	16een\
.	.	.	.	16dd\JJ
=176	=176	=176	=176	=176
4c\	.	8een\L	.	(16cc\LL
.	.	.	.	16een\)
.	.	8gg\	.	(16g\
.	.	.	.	16ee\JJ)
4r	.	8ee\	.	(16cc\LL
.	.	.	.	16ee\)
.	.	8cc\J	.	(16gg\
.	.	.	.	16ee\JJ)
!	!	!	!	!LO:LB:g=original
=177	=177	=177	=177	=177
8C\L	.	4g/	.	16cc\LL
.	.	.	.	16een\
8En\	.	.	.	16g\
.	.	.	.	16ee\JJ
8G\	.	4r	.	16cc\LL
.	.	.	.	16ee\
8c\J	.	.	.	16ccc\
.	.	.	.	16ee\JJ
=178	=178	=178	=178	=178
8Bn\	.	4ggT\	.	16dd\LL
.	.	.	.	16ff\
8r	.	.	.	16g\
.	.	.	.	16ff\JJ
8B\	.	8gg\L	.	16dd\LL
.	.	.	.	16ff\
8r	.	8gg\J	.	16g\
.	.	.	.	16ff\JJ
=179	=179	=179	=179	=179
8Bn\	.	4gg\	.	16dd\LL
.	.	.	.	16ff\
8r	.	.	.	16g\
.	.	.	.	16ff\JJ
4G\	.	4r	.	16gg\LL
.	.	.	.	16ff\
.	.	.	.	16een\
.	.	.	.	16dd\JJ
=180	=180	=180	=180	=180
4c\	.	4e-X/	.	16cc\LL
.	.	.	.	16ee-X\
.	.	.	.	16g\
.	.	.	.	16ee-\JJ
4C/	.	4e-/	.	16cc\LL
.	.	.	.	16ee-\
.	.	.	.	16gg\
.	.	.	.	16ee-\JJ
=181	=181	=181	=181	=181
2C/	.	2G/ 2e-	.	16cc\LL
.	.	.	.	16ee-\
.	.	.	.	16g\
.	.	.	.	16ee-\JJ
.	.	.	.	16cc\LL
.	.	.	.	16ee-\
.	.	.	.	16ccc\
.	.	.	.	16ee-\JJ
=182	=182	=182	=182	=182
4A-X\	.	4c/ 4e-	.	16cc\LL
.	.	.	.	16ee-\
.	.	.	.	16a-X\
.	.	.	.	16ee-\JJ
4AA-X/	.	4c/ 4e-	.	16cc\LL
.	.	.	.	16ee-\
.	.	.	.	16aa\
.	.	.	.	16ee-\JJ
=183	=183	=183	=183	=183
2AA-X/	.	(2c/ 2e-	.	16cc\LL
.	.	.	.	16ee-\
.	.	.	.	16a-X\
.	.	.	.	16ee-\JJ
.	.	.	.	16cc\LL
.	.	.	.	16ee-\
.	.	.	.	16ccc\
.	.	.	.	16ee-\JJ
!	!	!	!	!LO:LB:g=original
=184	=184	=184	=184	=184
4GG/	.	4B-/) 4e-	.	16cc\LL
.	.	.	.	(16dd-X\
.	.	.	.	16b-\
.	.	.	.	16dd-\JJ
4r	.	8.b-/L	.	16ee-\LL)
!LO:LB:g=original	!	!	!	!
.	.	.	.	(16dd-\
.	.	.	.	16cc\
.	.	16a-X/Jk	.	16dd-\JJ
!	!	!LO:LB:g=original	!	!
=185	=185	=185	=185	=185
4BB-/	.	4g/	.	16bb-\LL)
.	.	.	.	(16dd-X\
.	.	.	.	16cc\
.	.	.	.	16dd-\JJ
8.B-\L	.	8.g/L	.	16ddd\LL)
.	.	.	.	(16dd-\
.	.	.	.	16cc\
16A-X\Jk	.	16f/Jk	.	16dd-\JJ
=186	=186	=186	=186	=186
4G\	.	4e-/	.	16bb-\LL)
.	.	.	.	(16dd-X\
.	.	.	.	16cc\
.	.	.	.	16dd-\JJ
8.G\L	.	8.B-/L	.	16gg\LL)
.	.	.	.	(16dd-\
.	.	.	.	16cc\
16F\Jk	.	16A-X/Jk	.	16dd-\JJ
=187	=187	=187	=187	=187
4E-X\	.	4G/	.	16ee-\LL)
.	.	.	.	(16dd\
.	.	.	.	16cc\
.	.	.	.	16dd\JJ
4r	.	4r	.	16b-\LL)
.	.	.	.	(16dd\
.	.	.	.	16cc\
.	.	.	.	16dd\JJ
=188	=188	=188	=188	=188
4F\	.	4A-X/	.	16bn\LL)
.	.	.	.	(16cc\
.	.	.	.	16a-X\
.	.	.	.	16cc\JJ
4r	.	8.a-X/L	.	16dd-X\LL)
.	.	.	.	(16cc\
.	.	.	.	16b\
.	.	16g/Jk	.	16cc\JJ
=189	=189	=189	=189	=189
4AA-X/	.	4f/	.	16aa-X\LL)
.	.	.	.	(16cc\
.	.	.	.	16bn\
.	.	.	.	16cc\JJ
8.A-X\L	.	8.f/L	.	16ccc\LL)
.	.	.	.	(16cc\
.	.	.	.	16b\
16G\Jk	.	16g/Jk	.	16cc\JJ
=190	=190	=190	=190	=190
4F\	.	4a-X/	.	16aa-X\LL)
.	.	.	.	(16cc\
.	.	.	.	16bn\
.	.	.	.	16cc\JJ
8.FF/L	.	8.a-/L	.	16ff\LL)
.	.	.	.	(16cc\
.	.	.	.	16b\
16GG/Jk	.	16g/Jk	.	16cc\JJ
!	!	!	!	!LO:LB:g=original
=191	=191	=191	=191	=191
4AA-X/	.	4f/	.	16dd-X\LL)
.	.	.	.	(16cc\
.	.	.	.	16bn\
.	.	.	.	16cc\JJ
4r	.	4r	.	16a-X\LL)
.	.	.	.	(16cc\
.	.	.	.	16b\
.	.	.	.	16cc\JJ
=192	=192	=192	=192	=192
4GG/	.	4c/ 4en	.	16an/LL)
.	.	.	.	(16b-X/
.	.	.	.	16g/
.	.	.	.	16b-/JJ
4r	.	8.g/L	.	16cc\LL)
.	.	.	.	(16b-\
.	.	.	.	16a\
.	.	16f/Jk	.	16b-\JJ
=193	=193	=193	=193	=193
4GG/	.	4en/	.	16gg\LL)
.	.	.	.	(16b-\
.	.	.	.	16a\
.	.	.	.	16b-\JJ
8.G\L	.	8.e/L	.	16bb-\LL)
.	.	.	.	(16b-\
.	.	.	.	16a\
16F\Jk	.	16d-X/Jk	.	16b-\JJ
=194	=194	=194	=194	=194
4En\	.	4c/	.	16gg\LL)
.	.	.	.	(16b-\
.	.	.	.	16a\
.	.	.	.	16b-\JJ
8.E\L	.	8.c/L	.	16een\LL)
.	.	.	.	(16b-\
.	.	.	.	16a\
16F\Jk	.	16d-X/Jk	.	16b-\JJ
!LO:LB:g=original	!	!	!	!
=195	=195	=195	=195	=195
4En\	.	4c/	.	16cc\LL)
.	.	.	.	(16b-\
.	.	.	.	16a\
.	.	.	.	16b-\JJ
4r	.	4r	.	16g\LL)
.	.	.	.	(16b-\
.	.	.	.	16a\
.	.	.	.	16b-\JJ)
=196	=196	=196	=196	=196
4F\	.	[2c/	.	(16a-X/LL
.	.	.	.	16g/)
.	.	.	.	16f|/
.	.	.	.	16en|/JJ
8r	.	.	.	(16f/LL
.	.	.	.	16g/)
8En\	.	.	.	16a-|/
.	.	.	.	16b-|/JJ
=197	=197	=197	=197	=197
4F\	.	2c/_	.	16a-X/LL
.	.	.	.	16g/
.	.	.	.	16f/
.	.	.	.	16en/JJ
8r	.	.	.	16f/LL
.	.	.	.	16g/
8En\	.	.	.	16a-/
.	.	.	.	16b-/JJ
!	!	!	!	!LO:LB:g=original
=198	=198	=198	=198	=198
4F\	.	4c/]	.	(16a-X/LL
.	.	.	.	16g/
.	.	.	.	16f/
.	.	.	.	16en/JJ)
4r	.	(16ff\LL	.	(16f/LL
.	.	16ee-\	.	16e-X/
.	.	16dd-X\	.	16d-X/
.	.	16cc\JJ	.	16c/JJ)
!	!	!LO:LB:g=original	!	!
=199	=199	=199	=199	=199
2r	.	4bn\)	.	16Bn|/LL
.	.	.	.	(16a-X/
.	.	.	.	16g/
.	.	.	.	16f/JJ
.	.	4r	.	16en/LL
.	.	.	.	16d-X/
.	.	.	.	16c/
.	.	.	.	16B/JJ)
=200	=200	=200	=200	=200
!LO:TX:a:B:t=1	!	!	!	!
[2C/	.	4.G/ 4.en	.	(16c/LL
.	.	.	.	16en/
.	.	.	.	16g/
.	.	.	.	16cc/JJ
.	.	.	.	16een\LL
.	.	.	.	16gg\
.	.	8B-/ 8e	.	16ccc\
.	.	.	.	16gg\JJ)
=201	=201	=201	=201	=201
2C/_	.	2A-X/ 2f	.	(16aa-X\LL
.	.	.	.	16ff\
.	.	.	.	16ddn\
.	.	.	.	16bn\JJ
.	.	.	.	16a-X/LL
.	.	.	.	16f/
.	.	.	.	16d/
.	.	.	.	16B-/JJ)
=202	=202	=202	=202	=202
2C/_	.	4.G/ 4.en	.	(16c/LL
.	.	.	.	16en/
.	.	.	.	16g/
.	.	.	.	16cc/JJ
.	.	.	.	16ee-\LL
.	.	.	.	16gg\
.	.	8B-/ 8e	.	16ccc\
.	.	.	.	16gg\JJ)
=203	=203	=203	=203	=203
2C/_	.	2A-X/ 2f	.	(16aa-X\LL
.	.	.	.	16ff\
.	.	.	.	16dd\
.	.	.	.	16bn\JJ
.	.	.	.	16a-X/LL
.	.	.	.	16f/
.	.	.	.	16d/
.	.	.	.	16B-/JJ)
!	!	!	!	!LO:LB:g=original
=204	=204	=204	=204	=204
4C/]	.	4G/ 4en	.	(16c/LL
.	.	.	.	16Bn/)
.	.	.	.	(16d/
.	.	.	.	16c/JJ)
4r	.	4r	.	(16en/LL
.	.	.	.	16d/)
.	.	.	.	(16f/
.	.	.	.	16e/JJ)
=205	=205	=205	=205	=205
2r	.	2r	.	(16g/LL
.	.	.	.	16f/)
.	.	.	.	(16an/
.	.	.	.	16g/JJ)
.	.	.	.	(16b-/LL
.	.	.	.	16a/)
.	.	.	.	(16cc/
.	.	.	.	16b-/JJ)
=206	=206	=206	=206	=206
!LO:TX:a:B:t=3	!	!LO:TX:a:B:t=3	!	!
2r	.	2r	.	(16dd\LL
.	.	.	.	16cc\)
.	.	.	.	(16een\
.	.	.	.	16dd\JJ)
.	.	.	.	(16ff\LL
.	.	.	.	16ee\)
.	.	.	.	(16gg\
.	.	.	.	16ff\JJ)
=207	=207	=207	=207	=207
2r	.	2r	.	(16aa\LL
.	.	.	.	16gg\)
.	.	.	.	(16bb-\
.	.	.	.	16aa\JJ)
.	.	.	.	(16ccc\LL
.	.	.	.	16bb-\)
.	.	.	.	(16ddd\
.	.	.	.	16ccc\JJ)
=208	=208	=208	=208	=208
8C/	.	8G/ 8en	.	(16ccc\LL
.	.	.	.	16bb-\)
8r	.	8r	.	(16ddd\
.	.	.	.	16ccc\JJ)
8C/	.	8G/ 8e	.	(16ccc\LL
.	.	.	.	16bb-\)
8r	.	8r	.	(16ddd\
.	.	.	.	16ccc\JJ)
=209	=209	=209	=209	=209
8C/	.	8G/ 8en	.	(16ccc\LL
.	.	.	.	16bb-\)
8r	.	8r	.	(16ddd\
.	.	.	.	16ccc\JJ)
4r	.	4r	.	16ccc\LL
.	.	.	.	16bb-\
.	.	.	.	16aa\
.	.	.	.	16gg\JJ
=210	=210	=210	=210	=210
8F\	.	8An/ 8f	.	16ff\LL
.	.	.	.	16een\
8r	.	8r	.	16gg\
.	.	.	.	16ff\JJ
4r	.	4r	.	16aa\LL
!LO:LB:g=original	!	!	!	!
.	.	.	.	16gg\
.	.	.	.	16bb-\
.	.	.	.	16aa\JJ
!	!	!	!	!LO:LB:g=original
=211	=211	=211	=211	=211
2r	.	2r	.	16ccc\LL
.	.	.	.	16bb-\
.	.	.	.	16ddd\
.	.	.	.	16ccc\JJ
.	.	.	.	16eee-X\LL
.	.	.	.	16ddd\
.	.	.	.	16fff\
.	.	.	.	16eee-\JJ
=212	=212	=212	=212	=212
!LO:TX:a:B:t=1	!	!LO:TX:a:B:t=1	!	!
8F\	.	8c/ 8a	.	16eee-X\LL
.	.	.	.	16ddd\
8r	.	8r	.	16fff\
.	.	.	.	16eee-\JJ
8F\	.	8c/ 8a	.	16eee-\LL
.	.	.	.	16ddd\
8r	.	8r	.	16fff\
.	.	.	.	16eee-\JJ
=213	=213	=213	=213	=213
8F\	.	8c/ 8a	.	16eee-\LL
.	.	.	.	16ddd\
8r	.	8r	.	16fff\
.	.	.	.	16eee-\JJ
4r	.	4r	.	(16eee-\LL
.	.	.	.	16ccc\
.	.	.	.	16aa\
.	.	.	.	16ff\JJ)
=214	=214	=214	=214	=214
8F\	.	8c/ 8a	.	(16ee-\LL
.	.	.	.	16dd\)
8r	.	8r	.	(16ff\
.	.	.	.	16ee-\JJ)
4r	.	4r	.	(16ee-\LL
.	.	.	.	16cc\
.	.	.	.	16a\
.	.	.	.	16f\JJ)
=215	=215	=215	=215	=215
2r	.	2r	.	(16e-/LL
.	.	.	.	16f/
.	.	.	.	16a/
.	.	.	.	16cc/JJ
.	.	.	.	16ee-\LL)
.	.	.	.	16gg|\
.	.	.	.	16ff|\
.	.	.	.	16ee-|\JJ
=216	=216	=216	=216	=216
!LO:TX:a:B:t=1	!	!LO:TX:a:B:t=1	!	!
4BB-/	p	4f/ 4b-	p	16dd|\LL
.	.	.	.	16ee-|\
.	.	.	.	16dd|\
.	.	.	.	16cc|\JJ
8r	.	8r	.	16dd\LL
.	.	.	.	16b-\
8B-\	.	8f/ 8b-	.	16cc\
!	!	!LO:LB:g=original	!	!
.	.	.	.	16dd\JJ
=217	=217	=217	=217	=217
4A\	.	4f/ 4cc	.	16ee-\LL
.	.	.	.	16ff\
.	.	.	.	16ee-\
.	.	.	.	16dd\JJ
8r	.	8r	.	16ee-\LL
.	.	.	.	16cc\
8A\	.	8f/ 8cc	.	16ff\
.	.	.	.	16ee-\JJ
!	!	!	!	!LO:LB:g=original
=218	=218	=218	=218	=218
4B-\	.	4f/ 4b-	.	16dd\LL
.	.	.	.	16ee-\
.	.	.	.	16dd\
.	.	.	.	16cc\JJ
8r	.	8r	.	16dd\LL
.	.	.	.	16b-\
8B-\	.	8f/ 8b-	.	16ff\
.	.	.	.	16dd\JJ
=219	=219	=219	=219	=219
4F\	.	4f/ 4a	.	16cc/LL
.	.	.	.	16b-/
.	.	.	.	16a/
.	.	.	.	16g/JJ
4r	.	4r	.	16f/LL
.	.	.	.	16a/
.	.	.	.	16b-/
.	.	.	.	16cc/JJ
=220	=220	=220	=220	=220
4B-\	.	4f/ 4b-	.	16dd\LL
.	.	.	.	16ee-\
.	.	.	.	16dd\
.	.	.	.	16cc\JJ
8r	.	8r	.	16dd\LL
.	.	.	.	16b-\
8B-\	.	8f/ 8b-	.	16cc\
.	.	.	.	16dd\JJ
=221	=221	=221	=221	=221
4B-\	.	4g/ 4cc	.	16ee-\LL
.	.	.	.	16ff\
.	.	.	.	16ee-\
.	.	.	.	16dd\JJ
8r	.	8r	.	16ee-\LL
.	.	.	.	16cc\
8B-\	.	8g/ 8cc	.	16dd\
.	.	.	.	16ee-\JJ
!	!	!	!	!LO:LB:g=original
=222	=222	=222	=222	=222
8A\L	.	8f/ 8cc	.	16ff\LL
.	.	.	.	16een\
8F\	.	4cc\	.	16ff\
.	.	.	.	16aa\JJ
8En\	.	.	.	16gg\LL
.	.	.	.	16bb-\
8C\J	.	8b-\	.	16ee\
!LO:LB:g=original	!	!	!	!
.	.	.	.	16gg\JJ
=223	=223	=223	=223	=223
!LO:TX:t=P:problem:mixed beam	!	!	!	!
8F\L	.	4a/	.	[4ff\
8FF/J	.	.	.	.
4r	.	4r	.	16ff\LL]
.	.	.	.	16gg|\
.	.	.	.	16ff|\
.	.	.	.	16een|\JJ
=224	=224	=224	=224	=224
2r	.	2r	.	16ff\LL
.	.	.	.	16gg\
.	.	.	.	16aa|\
.	.	.	.	16bb-|\JJ
.	.	.	.	16ccc\LL
.	.	.	.	16aa\
.	.	.	.	16ccc|\
.	.	.	.	16aa|\JJ
=225	=225	=225	=225	=225
!LO:TX:t=P:problem:mixed beam	!	!	!	!
!LO:TX:a:B:t=1	!	!LO:TX:a:B:t=1	!	!
8F\L	.	8c/L	.	[4ff\
8FF/J	.	8a/J	.	.
4r	.	4r	.	16ff\LL]
.	.	.	.	16gg|\
.	.	.	.	16aa|\
.	.	.	.	16bb-|\JJ
!	!	!	!	!LO:LB:g=original
=226	=226	=226	=226	=226
2r	.	2r	.	(16aa\LL
.	.	.	.	16bb-\)
.	.	.	.	16ccc|\
.	.	.	.	16ddd|\JJ
.	.	.	.	(16eee-\LL
.	.	.	.	16ccc\)
.	.	.	.	16eee-|\
.	.	.	.	16ccc|\JJ
=227	=227	=227	=227	=227
!LO:TX:t=P:problem:mixed beam	!	!	!	!
!LO:TX:a:B:t=1	!	!LO:TX:a:B:t=1	!	!
8F\L	.	8c/L	.	8.aa\L
8FF/J	.	8a/J	.	.
.	.	.	.	16ccc\Jk
4r	.	4r	.	(16eee-\LL
.	.	.	.	16ccc\)
.	.	.	.	(16eee-\
.	.	.	.	16ccc\JJ)
=228	=228	=228	=228	=228
!LO:TX:t=P:problem:mixed beam	!	!	!	!
8F\L	.	8c/L	.	8.aa\L
8FF/J	.	8a/J	.	.
.	.	.	.	16ccc\Jk
4r	.	4r	.	(16eee-\LL
.	.	.	.	16ccc\)
.	.	.	.	16eee-\
.	.	.	.	16ccc\JJ
=229	=229	=229	=229	=229
4F\	.	[2c/ [2a	.	16eee-\LL
.	.	.	.	(16ccc\
.	.	.	.	16eee-\)
.	.	.	.	(16ccc\JJ
(4G-X\	.	.	.	16eee-\LL)
.	.	.	.	(16ccc\
.	.	.	.	16eee-\)
.	.	.	.	(16ccc\JJ
=230	=230	=230	=230	=230
4.F\)	.	2c/_ 2a_	.	16eee-\LL)
.	.	.	.	(16ccc\
.	.	.	.	16eee-\)
.	.	.	.	(16ccc\JJ
.	.	.	.	16eee-\LL)
.	.	.	.	(16ccc\
(8G-X\	.	.	.	16eee-\)
.	.	.	.	(16ccc\JJ
=231	=231	=231	=231	=231
4F\)	.	4c/] 4a]	.	16eee-\LL)
.	.	.	.	(16ccc\
.	.	.	.	16aa\)
.	.	.	.	(16ff\JJ
4r	.	4r	.	16ee-\LL)
.	.	.	.	(16cc\
.	.	.	.	16a\)
.	.	.	.	(16f\JJ
=232	=232	=232	=232	=232
8r	.	8r	.	4e-/)
!LO:TX:t=P:problem:mixed beam	!	!	!	!
(8G-X\L	pp	8c'/L 8a	.	.
8F\)	.	8c'/ 8a	.	4r
8FF/J	.	8c'/J 8a	.	.
=233	=233	=233	=233	=233
8F\	.	8c/ 8a	.	16r
.	.	.	.	16f/LL
8r	.	8r	.	16g/
.	.	.	.	16a/JJ
4r	.	4r	.	16b-\LL
.	.	.	.	16cc\
.	.	.	.	16dd\
.	.	.	.	16ee-\JJ
!	!	!	!	!LO:LB:g=original
=234	=234	=234	=234	=234
2r	.	2r	.	16ff\LL
.	.	.	.	16gg\
.	.	.	.	16ff\
.	.	.	.	16een\JJ
.	.	.	.	16ff\LL
.	.	.	.	16gg\
.	.	.	.	16ff\
.	.	.	.	16ee\JJ
=235	=235	=235	=235	=235
!LO:TX:a:B:t=2	!	!LO:TX:a:B:t=2	!	!
2r	.	2r	.	16ff\LL
.	.	.	.	16bb-\
.	.	.	.	16aa\
.	.	.	.	16gg\JJ
.	.	.	.	16ff\LL
.	.	.	.	16ee-\
.	.	.	.	16dd\
.	.	.	.	16cc\JJ
=236	=236	=236	=236	=236
[2BB-/	.	8B-/L	pp	16dd\LL
.	.	.	.	16ee-\
.	.	8f/	.	16dd\
.	.	.	.	16cc\JJ
.	.	8b-/	.	16dd\LL
.	.	.	.	16b-\
.	.	8f/J	.	16cc\
!	!	!LO:LB:g=original	!	!
.	.	.	.	16dd\JJ
=237	=237	=237	=237	=237
2BB-/_	.	8c/L	.	16ee-\LL
.	.	.	.	16ff\
.	.	8f/	.	16ee-\
.	.	.	.	16dd\JJ
.	.	8a/	.	16ee-\LL
.	.	.	.	16cc\
.	.	8f/J	.	16ff\
.	.	.	.	16ee-\JJ
=238	=238	=238	=238	=238
2BB-/]	.	8B-/L	.	16dd\LL
!LO:LB:g=original	!	!	!	!
.	.	.	.	16ee-\
.	.	8f/	.	16dd\
.	.	.	.	16cc\JJ
.	.	8b-/	.	16dd\LL
.	.	.	.	16b-\
.	.	8f/J	.	16ff\
.	.	.	.	16dd\JJ
=239	=239	=239	=239	=239
4FF/	.	4a/	.	16cc/LL
.	.	.	.	16b-/
.	.	.	.	16a/
.	.	.	.	16g/JJ
4r	.	4r	.	16f/LL
.	.	.	.	16a/
.	.	.	.	16b-/
.	.	.	.	16cc/JJ
=240	=240	=240	=240	=240
[2BB-/	.	8B-/L	.	16dd\LL
.	.	.	.	16ee-\
.	.	8f/	.	16dd\
.	.	.	.	16cc\JJ
.	.	8b-/	.	16dd\LL
.	.	.	.	16b-\
.	.	8f/J	.	16cc\
.	.	.	.	16dd\JJ
=241	=241	=241	=241	=241
2BB-/_	.	8c/L	.	16ee-\LL
.	.	.	.	16ff\
.	.	8f/	.	16ee-\
.	.	.	.	16dd\JJ
.	.	8a/	.	16ee-\LL
.	.	.	.	16cc\
.	.	8f/J	.	16ff\
.	.	.	.	16ee-\JJ
!	!	!	!	!LO:LB:g=original
=242	=242	=242	=242	=242
8BB-/]	.	8r	.	16dd\LL
.	.	.	.	16ff\
8r	.	8f/ 8b-	.	16ee-\
.	.	.	.	16dd\JJ
8F\	.	8r	.	16cc\LL
.	.	.	.	16ee-\
8r	.	8e-/ 8a	.	16dd\
.	.	.	.	16cc\JJ
=243	=243	=243	=243	=243
4BB-/	.	4d/ 4b-	.	16b-/LL
.	.	.	.	16B-/
.	.	.	.	16c/
.	.	.	.	16d/JJ
4r	.	4r	.	16e-/LL
.	.	.	.	16f/
.	.	.	.	16g/
.	.	.	.	16a/JJ
=244	=244	=244	=244	=244
2r	.	2r	.	16b-\LL
.	.	.	.	16b-\
.	.	.	.	16cc\
.	.	.	.	16dd\JJ
.	.	.	.	16ee-\LL
.	.	.	.	16ff\
.	.	.	.	16gg\
.	.	.	.	16aa\JJ
=245	=245	=245	=245	=245
!LO:TX:a:B:t=1	!	!LO:TX:a:B:t=1	!	!
4BB-/	.	4f/ 4dd	.	16bb-\LL
.	.	.	.	16b-\
.	.	.	.	16cc\
.	.	.	.	16dd\JJ
4r	.	4r	.	16ee-\LL
.	.	.	.	16ff\
.	.	.	.	16gg\
.	.	.	.	16aa\JJ
=246	=246	=246	=246	=246
2r	.	2r	.	16bb-\LL
.	.	.	.	16bb-\
.	.	.	.	16ccc\
.	.	.	.	16ddd\JJ
.	.	.	.	16eee-\LL
.	.	.	.	16fff\
.	.	.	.	16ggg\
.	.	.	.	16aaa\JJ
=247	=247	=247	=247	=247
!LO:TX:a:B:t=1	!	!LO:TX:a:B:t=1	!	!
4r	.	4r	.	4bbb-\
!	!	!	!LO:DY:b:t=F	!
16r	.	16r	f	4r
!	!LO:DY:b:t=F	!	!	!
16B-\LL	f	16dd\LL	.	.
16A\	.	16cc\	.	.
16G\JJ	.	16b-\JJ	.	.
=248	=248	=248	=248	=248
16F\LL	.	16a/LL	.	2r
16G\	.	16b-/	.	.
16F\	.	16a/	.	.
16E-\JJ	.	16g/JJ	.	.
16D\LL	.	16f/LL	.	.
16E-\	.	16g/	.	.
16D\	.	16f/	.	.
16C\JJ	.	16e-/JJ	.	.
=249	=249	=249	=249	=249
!	!	!	!	!LO:TX:a:B:t=1
8BB-/L	.	8d/L	.	4d/ 4b-
16C/L	.	16e-/L	.	.
16D/JJ	.	16f/JJ	.	.
16E-\LL	.	16g/LL	.	4b-\ 4bb-
16F\	.	16a/	.	.
16G\	.	16b-/	.	.
16A\JJ	.	16cc/JJ	.	.
=250	=250	=250	=250	=250
4B-\	.	4dd\	.	4B-/
4r	.	4r	.	4r
==	==	==	==	==
*-	*-	*-	*-	*-
!!!system-decoration: [(s1,s2,s3)]
!!!RDF**kern: | = vertical stroke
!!!ENC: Arek Malec
!!!END: 2022-05-29
!!!ENC: Julita Ruszuk
!!!AIN: 1 cello 2 violn
!!!ENC: 2022-05-29
